icon-themes/sifr_svg/cmd/lc_basicshapes.circle-pie.svg

<svg viewBox="0 0 24 24" xmlns="http://www.w3.org/2000/svg"><g fill="#555753"><path d="m12 2c-5.5228475 0-10 4.4771525-10 10 0 5.522847 4.4771525 10 10 10 5.522847 0 10-4.477153 10-10v-1h-9v-9zm-1 2.0722656v8.9277344h8.929688c-.503592 3.997142-3.90095 6.99619-7.929688 7-4.418278 0-8-3.581722-8-8 .0047934-4.027994 3.0035954-7.4242376 7-7.9277344z"/><path d="m11 4.0722656v8.9277344h8.929688c-.503592 3.997142-3.90095 6.99619-7.929688 7-4.418278 0-8-3.581722-8-8 .0047934-4.027994 3.0035954-7.4242376 7-7.9277344z" opacity=".35"/></g></svg>

<svg xmlns="http://www.w3.org/2000/svg" viewBox="0 0 24 24">
  <path
     style="fill:#555753"
     d="M 12 2 C 6.4771525 2 2 6.4771525 2 12 C 2 17.522847 6.4771525 22 12 22 C 17.522847 22 22 17.522847 22 12 L 22 11 L 13 11 L 13 2 L 12 2 z M 11 4.0722656 L 11 13 L 19.929688 13 C 19.426096 16.997142 16.028738 19.99619 12 20 C 7.581722 20 4 16.418278 4 12 C 4.0047934 7.972006 7.0035954 4.5757624 11 4.0722656 z "
     />
  <path
     style="opacity:0.35;fill:#555753"
     d="M 11,4.0722656 V 13 h 8.929688 C 19.426096,16.997142 16.028738,19.99619 12,20 7.581722,20 4,16.418278 4,12 4.0047934,7.972006 7.0035954,4.5757624 11,4.0722656 Z"
     />
</svg>
